X: 4
T: The Roscommon
R: reel
M: 4/4
L: 1/8
K: Edor
|:EFGA BAGB|AF F2 dFAF|EFGA BAGB|AFdF FE E2|
EFGA BAGB|AF F2 dFAF|EFGA BAGB|AFdF FE E2||
|:eB B2 efge|fa a2 bfaf|eB B2 efge|fagf efgf|
eB B2 efge|fa a2 bgaf|g3e f3e|dBAF EFGA||
|:B3A B2 dB|AF F2 DF F2|EBBA B2 dB|AFDE FEED|
EBBA B2 dB|AF F2 DF F2|dBBA B2 dB|AFdF FE E2||


Tune 637	Setting 13665

